icons/rpe.svg

<svg id="_x33_0" enable-background="new 0 0 64 64" height="512" viewBox="0 0 64 64" width="512" xmlns="http://www.w3.org/2000/svg"><g><g><g><path d="m52 42c5.52 0 10 4.48 10 10s-4.48 10-10 10c-4.84 0-8.87-3.44-9.8-8h4.14c.83 2.33 3.05 4 5.66 4 3.31 0 6-2.69 6-6s-2.69-6-6-6c-2.61 0-4.83 1.67-5.66 4h-4.14c.93-4.56 4.96-8 9.8-8z" fill="#fcd770"/></g><g><path d="m52 51v2c0 .55-.45 1-1 1h-4.66-4.14-3.2c-.55 0-1-.45-1-1v-1-1c0-.55.45-1 1-1h3.2 4.14 4.66c.55 0 1 .45 1 1z" fill="#ffc729"/></g><g><path d="m41 23c.55 0 1 .45 1 1 0 9.39-7.61 17-17 17h-1v2c0 .55-.45 1-1 1h-1-1c-.55 0-1-.45-1-1v-2h-1c-4.7 0-8.94-1.9-12.02-4.98s-4.98-7.32-4.98-12.02c0-.55.45-1 1-1h1 1c.55 0 1 .45 1 1 0 7.18 5.82 13 13 13h6c3.59 0 6.84-1.46 9.19-3.81s3.81-5.6 3.81-9.19c0-.55.45-1 1-1h1z" fill="#ccd1d9"/></g><g><path d="m40 10v4h-4.83c.55-1.18.83-2.47.83-3.79v-.03c0-.74-.09-1.47-.27-2.18h2.27c1.1 0 2 .9 2 2z" fill="#ccd1d9"/></g><g><path d="m35.73 8c-.31-1.27-.89-2.46-1.72-3.48-.63-.8-1.43-1.42-2.33-1.86-.9-.43-1.88-.66-2.9-.66-1.78 0-3.49.71-4.74 1.96l-2.04 2.04-2.04-2.04c-1.25-1.25-2.96-1.96-4.74-1.96-1.02 0-2 .23-2.9.66-.9.44-1.7 1.06-2.33 1.86-.84 1.04-1.43 2.25-1.73 3.54-.17.69-.26 1.4-.26 2.12v.03c0 1.32.28 2.61.83 3.79.32.71.73 1.38 1.24 2 .19.23.39.46.61.68l11.32 11.32 11.32-11.32c.78-.78 1.41-1.69 1.85-2.68.55-1.18.83-2.47.83-3.79v-.03c0-.74-.09-1.47-.27-2.18z" fill="#ff826e"/></g><g><path d="m8 10.21c0 1.32.28 2.61.83 3.79h-.01-4.82v-4c0-1.1.9-2 2-2h2l.26.06c-.17.69-.26 1.4-.26 2.12z" fill="#ccd1d9"/></g></g><path d="m52 41c-4.934 0-9.255 3.319-10.58 8h-2.42c-1.103 0-2 .897-2 2h-14v-6c1.103 0 2-.897 2-2v-1c9.925 0 18-8.075 18-18 0-1.103-.897-2-2-2v-12c0-1.654-1.346-3-3-3h-1.523c-.374-1.121-.938-2.178-1.683-3.108-1.47-1.838-3.663-2.892-6.017-2.892-2.059 0-3.994.802-5.448 2.257l-1.329 1.329-1.329-1.329c-1.455-1.455-3.39-2.257-5.448-2.257-2.354 0-4.547 1.054-6.017 2.892-.744.929-1.308 1.984-1.681 3.108h-1.525c-1.654 0-3 1.346-3 3v12c-1.103 0-2 .897-2 2 0 9.925 8.075 18 18 18v1c0 1.103.897 2 2 2v6h-4c-3.309 0-6 2.691-6 6s2.691 6 6 6 6-2.691 6-6v-4h14c0 1.103.897 2 2 2h2.42c1.325 4.681 5.646 8 10.58 8 6.065 0 11-4.935 11-11s-4.935-11-11-11zm-14-32c.551 0 1 .448 1 1v3h-2.396c.257-.903.396-1.848.396-2.819 0-.396-.032-.79-.079-1.181zm-27.232-3.858c1.088-1.362 2.712-2.142 4.455-2.142 1.524 0 2.957.594 4.034 1.671l2.743 2.743 2.743-2.743c1.077-1.077 2.51-1.671 4.034-1.671 1.743 0 3.367.78 4.455 2.142 1.14 1.424 1.768 3.213 1.768 5.068 0 .968-.177 1.907-.498 2.79h-9.12l-2.197 4.394-3.1-9.3-2.762 6.906h-6.757c-1.012-1.385-1.566-3.049-1.566-4.819 0-1.826.628-3.615 1.768-5.039zm22.666 9.858c-.249.34-.517.669-.821.973l-10.613 10.613-9.586-9.586h6.263l1.237-3.094 2.9 8.7 3.804-7.606zm-27.434-6h1.081c-.048.4-.081.803-.081 1.21 0 .958.138 1.893.393 2.79h-2.393v-3c0-.552.449-1 1-1zm-1 6h3.197c.466.867 1.061 1.671 1.776 2.387l12.027 12.027 12.027-12.027c.715-.715 1.31-1.519 1.775-2.387h3.198v7c-1.103 0-2 .897-2 2 0 6.617-5.383 12-12 12h-6c-6.617 0-12-5.383-12-12 0-1.103-.897-2-2-2zm14 25c-8.822 0-16-7.178-16-16h2c0 7.72 6.28 14 14 14h6c7.72 0 14-6.28 14-14h2c0 8.822-7.178 16-16 16h-2v3h-2v-3zm2 17c0 2.206-1.794 4-4 4s-4-1.794-4-4 1.794-4 4-4h4zm18-6h12l.001 2h-12.001zm12-2h-2.998c.928-1.234 2.399-2 3.998-2 2.757 0 5 2.243 5 5s-2.243 5-5 5c-1.599 0-3.069-.766-3.998-2h2.998c1.103 0 2-.897 2-2v-2c0-1.103-.897-2-2-2zm1 12c-3.842 0-7.226-2.462-8.479-6h2.174c1.15 2.414 3.59 4 6.305 4 3.86 0 7-3.141 7-7s-3.14-7-7-7c-2.716 0-5.155 1.586-6.305 4h-2.174c1.253-3.538 4.637-6 8.479-6 4.962 0 9 4.037 9 9s-4.038 9-9 9z"/></g></svg>

<?xml version="1.0" encoding="UTF-8" standalone="no"?>
<svg
   xmlns:dc="http://purl.org/dc/elements/1.1/"
   xmlns:cc="http://creativecommons.org/ns#"
   xmlns:rdf="http://www.w3.org/1999/02/22-rdf-syntax-ns#"
   xmlns:svg="http://www.w3.org/2000/svg"
   xmlns="http://www.w3.org/2000/svg"
   xmlns:sodipodi="http://sodipodi.sourceforge.net/DTD/sodipodi-0.dtd"
   xmlns:inkscape="http://www.inkscape.org/namespaces/inkscape"
   inkscape:version="1.0 (4035a4fb49, 2020-05-01)"
   sodipodi:docname="rpe.svg"
   version="1.1"
   width="24"
   viewBox="0 0 3 3"
   height="24"
   enable-background="new 0 0 64 64"
   id="_x33_0">
  <metadata
     id="metadata37">
    <rdf:RDF>
      <cc:Work
         rdf:about="">
        <dc:format>image/svg+xml</dc:format>
        <dc:type
           rdf:resource="http://purl.org/dc/dcmitype/StillImage" />
        <dc:title></dc:title>
      </cc:Work>
    </rdf:RDF>
  </metadata>
  <defs
     id="defs35" />
  <sodipodi:namedview
     inkscape:current-layer="_x33_0"
     inkscape:window-maximized="1"
     inkscape:window-y="0"
     inkscape:window-x="0"
     inkscape:cy="15.632492"
     inkscape:cx="15.903409"
     inkscape:zoom="31.5"
     showgrid="false"
     id="namedview33"
     inkscape:window-height="1417"
     inkscape:window-width="2560"
     inkscape:pageshadow="2"
     inkscape:pageopacity="0"
     guidetolerance="10"
     gridtolerance="10"
     objecttolerance="10"
     borderopacity="1"
     bordercolor="#666666"
     pagecolor="#ffffff" />
  <g
     transform="matrix(0.0483871,0,0,0.0483871,-0.0483871,-0.0483871)"
     id="g30">
    <g
       id="g26">
      <g
         id="g4">
        <path
           id="path2"
           fill="#fcd770"
           d="m 52,42 c 5.52,0 10,4.48 10,10 0,5.52 -4.48,10 -10,10 -4.84,0 -8.87,-3.44 -9.8,-8 h 4.14 c 0.83,2.33 3.05,4 5.66,4 3.31,0 6,-2.69 6,-6 0,-3.31 -2.69,-6 -6,-6 -2.61,0 -4.83,1.67 -5.66,4 H 42.2 c 0.93,-4.56 4.96,-8 9.8,-8 z" />
      </g>
      <g
         id="g8">
        <path
           id="path6"
           fill="#ffc729"
           d="m 52,51 v 2 c 0,0.55 -0.45,1 -1,1 H 46.34 42.2 39 c -0.55,0 -1,-0.45 -1,-1 v -1 -1 c 0,-0.55 0.45,-1 1,-1 h 3.2 4.14 4.66 c 0.55,0 1,0.45 1,1 z" />
      </g>
      <g
         id="g12">
        <path
           id="path10"
           fill="#ccd1d9"
           d="m 41,23 c 0.55,0 1,0.45 1,1 0,9.39 -7.61,17 -17,17 h -1 v 2 c 0,0.55 -0.45,1 -1,1 h -1 -1 c -0.55,0 -1,-0.45 -1,-1 V 41 H 19 C 14.3,41 10.06,39.1 6.98,36.02 3.9,32.94 2,28.7 2,24 2,23.45 2.45,23 3,23 h 1 1 c 0.55,0 1,0.45 1,1 0,7.18 5.82,13 13,13 h 6 c 3.59,0 6.84,-1.46 9.19,-3.81 C 36.54,30.84 38,27.59 38,24 c 0,-0.55 0.45,-1 1,-1 h 1 z" />
      </g>
      <g
         id="g16">
        <path
           id="path14"
           fill="#ccd1d9"
           d="m 40,10 v 4 H 35.17 C 35.72,12.82 36,11.53 36,10.21 V 10.18 C 36,9.44 35.91,8.71 35.73,8 H 38 c 1.1,0 2,0.9 2,2 z" />
      </g>
      <g
         id="g20">
        <path
           id="path18"
           fill="#ff826e"
           d="M 35.73,8 C 35.42,6.73 34.84,5.54 34.01,4.52 33.38,3.72 32.58,3.1 31.68,2.66 30.78,2.23 29.8,2 28.78,2 27,2 25.29,2.71 24.04,3.96 L 22,6 19.96,3.96 C 18.71,2.71 17,2 15.22,2 14.2,2 13.22,2.23 12.32,2.66 11.42,3.1 10.62,3.72 9.99,4.52 9.15,5.56 8.56,6.77 8.26,8.06 8.09,8.75 8,9.46 8,10.18 v 0.03 c 0,1.32 0.28,2.61 0.83,3.79 0.32,0.71 0.73,1.38 1.24,2 0.19,0.23 0.39,0.46 0.61,0.68 L 22,28 33.32,16.68 C 34.1,15.9 34.73,14.99 35.17,14 35.72,12.82 36,11.53 36,10.21 V 10.18 C 36,9.44 35.91,8.71 35.73,8 Z" />
      </g>
      <g
         id="g24">
        <path
           id="path22"
           fill="#ccd1d9"
           d="M 8,10.21 C 8,11.53 8.28,12.82 8.83,14 H 8.82 4 V 10 C 4,8.9 4.9,8 6,8 H 8 L 8.26,8.06 C 8.09,8.75 8,9.46 8,10.18 Z" />
      </g>
    </g>
    <path
       id="path28"
       d="m 52,41 c -4.934,0 -9.255,3.319 -10.58,8 H 39 c -1.103,0 -2,0.897 -2,2 H 23 v -6 c 1.103,0 2,-0.897 2,-2 v -1 c 9.925,0 18,-8.075 18,-18 0,-1.103 -0.897,-2 -2,-2 V 10 C 41,8.346 39.654,7 38,7 H 36.477 C 36.103,5.879 35.539,4.822 34.794,3.892 33.324,2.054 31.131,1 28.777,1 26.718,1 24.783,1.802 23.329,3.257 L 22,4.586 20.671,3.257 C 19.216,1.802 17.281,1 15.223,1 12.869,1 10.676,2.054 9.206,3.892 8.462,4.821 7.898,5.876 7.525,7 H 6 C 4.346,7 3,8.346 3,10 v 12 c -1.103,0 -2,0.897 -2,2 0,9.925 8.075,18 18,18 v 1 c 0,1.103 0.897,2 2,2 v 6 h -4 c -3.309,0 -6,2.691 -6,6 0,3.309 2.691,6 6,6 3.309,0 6,-2.691 6,-6 v -4 h 14 c 0,1.103 0.897,2 2,2 h 2.42 c 1.325,4.681 5.646,8 10.58,8 6.065,0 11,-4.935 11,-11 C 63,45.935 58.065,41 52,41 Z M 38,9 c 0.551,0 1,0.448 1,1 v 3 H 36.604 C 36.861,12.097 37,11.152 37,10.181 37,9.785 36.968,9.391 36.921,9 Z M 10.768,5.142 C 11.856,3.78 13.48,3 15.223,3 16.747,3 18.18,3.594 19.257,4.671 L 22,7.414 24.743,4.671 C 25.82,3.594 27.253,3 28.777,3 30.52,3 32.144,3.78 33.232,5.142 34.372,6.566 35,8.355 35,10.21 35,11.178 34.823,12.117 34.502,13 h -9.12 l -2.197,4.394 -3.1,-9.3 L 17.323,15 H 10.566 C 9.554,13.615 9,11.951 9,10.181 9,8.355 9.628,6.566 10.768,5.142 Z M 33.434,15 c -0.249,0.34 -0.517,0.669 -0.821,0.973 L 22,26.586 12.414,17 h 6.263 l 1.237,-3.094 2.9,8.7 L 26.618,15 Z M 6,9 H 7.081 C 7.033,9.4 7,9.803 7,10.21 7,11.168 7.138,12.103 7.393,13 H 5 V 10 C 5,9.448 5.449,9 6,9 Z m -1,6 h 3.197 c 0.466,0.867 1.061,1.671 1.776,2.387 L 22,29.414 34.027,17.387 C 34.742,16.672 35.337,15.868 35.802,15 H 39 v 7 c -1.103,0 -2,0.897 -2,2 0,6.617 -5.383,12 -12,12 H 19 C 12.383,36 7,30.617 7,24 7,22.897 6.103,22 5,22 Z M 19,40 C 10.178,40 3,32.822 3,24 h 2 c 0,7.72 6.28,14 14,14 h 6 c 7.72,0 14,-6.28 14,-14 h 2 c 0,8.822 -7.178,16 -16,16 h -2 v 3 h -2 v -3 z m 2,17 c 0,2.206 -1.794,4 -4,4 -2.206,0 -4,-1.794 -4,-4 0,-2.206 1.794,-4 4,-4 h 4 z m 18,-6 h 12 l 10e-4,2 H 39 Z m 12,-2 h -2.998 c 0.928,-1.234 2.399,-2 3.998,-2 2.757,0 5,2.243 5,5 0,2.757 -2.243,5 -5,5 -1.599,0 -3.069,-0.766 -3.998,-2 H 51 c 1.103,0 2,-0.897 2,-2 v -2 c 0,-1.103 -0.897,-2 -2,-2 z m 1,12 c -3.842,0 -7.226,-2.462 -8.479,-6 h 2.174 c 1.15,2.414 3.59,4 6.305,4 3.86,0 7,-3.141 7,-7 0,-3.859 -3.14,-7 -7,-7 -2.716,0 -5.155,1.586 -6.305,4 h -2.174 c 1.253,-3.538 4.637,-6 8.479,-6 4.962,0 9,4.037 9,9 0,4.963 -4.038,9 -9,9 z" />
  </g>
</svg>
